X: 1
T:Rebecca Deans
M:C|
L:1/8
Q:80
C:Michael Grey
S:Hornpipe
K:HP
|: {g}A3/4B/4|
{gdedc}d{g}A3/4B/4{g}d3/4A/4{g}e3/4f/4|
g3/4B/4{g}B3/4e/4g3/4a/4g3/4e/4|  !
{g}f3/4d/4{g}A3/4d/4{g}f3/4a/4g3/4f/4|
{g}((3e/2f/2e/2){g}c3/4B/4{gAGAG}A{g}A3/4B/4{gdedc}d{g}A3/4B/4{g}d3/4A/4
{g}e3/4f/4|
g3/4B/4{g}B3/4e/4g3/4a/4g3/4e/4|  !
{g}f3/4d/4{g}A3/4d/4{g}f3/4a/4{g}a3/4f/4|
{g}((3e/2f/2e/2)a3/4c/4{Gdc}d:| |:
e|  !
{gfg}fa3/4f/4{g}e3/4c/4{g}A3/4c/4|
{gdedc}d{g}f3/4d/4{g}c3/4d/4{g}A3/4c/4|
{g}Bd/2{gdedc}d/2{g}Ad/2{gdedc}d/2|  !
{g}f3/4a/4{g}a3/4f/4{gef}e|1 {gAGAG}A|2 a3/4c/4|1 {gfg}fa3/4f/4{g}e3/4c/
4{g}A3/4c/4|
{gdedc}d{g}f3/4d/4{g}c3/4d/4{g}A3/4c/4|
{g}B3/4d/4{g}d3/4B/4{g}A3/4d/4{g}f3/4d/4|  !
{g}((3e/2f/2e/2)a3/4c/4{Gdc}d:|2
{g}B3/4c/4{g}d3/4B/4{g}A3/4{d}c/4{g}e3/4c/4|
{gdedc}d{g}f3/4d/4{g}e3/4c/4g3/4e/4|  !
{g}f3/4d/4{g}A3/4d/4{g}f3/4a/4{g}a3/4f/4|
{g}((3e/2f/2e/2)a3/4c/4{Gdc}d|]
